X:54
T:Charlie Hunter
M:6/8
L:1/8
R:Jig
K:D major
"D"DFA "G"GBd|"D"Adf a2g|fed "G"Bcd|"A"ecA GFE|"D"DFA "G"GBd|"D"Adf a2g|"A"fef gec|1edc "D"d3:|2"D"edc d2 a|!
"D"afd dcd|"G"BGG G2F|"E"E^GB e2d|"A"cBA A2g|"D"fed AFA|"G"GBd g2g|"D"fef "A"gec|edc "D"d3:|

